X:1
T:Title
%%score 1 { ( 2 4 ) | 3 }
L:1/8
Q:1/4=113
M:4/4
K:D
V:1 treble nm="Grand Piano, Unnamed-000"
V:2 bass nm="Choir Pad, Leominster, SMD"
V:4 bass 
V:3 bass 
V:1
 [DF]2 [DF]2 [DF]2 [DF]2 | [DF]2 [DG]6 | [DG]2 [DE]2 [DE]2 [DE]2 | [DF]2 [CE]6 | %4
w: By~George~William~Martin,~1862 * * *||||
 [CE]2 [DF]2 [DF]2 [EA]2 | [EA]2 [Dd]2 [Fd]2 [Gd]2 | [B,D]2 [A,D]2- [A,D][DF] [CF]2 | %7
w: |||
 [CE]2 [A,D]6 | D2 [DG]2- [DG][DG] [DG]2 | D2 [DF]6 | [DF]2 [FB]2- [FB][FB] [FB]2 | F2 [FA]6 | %12
w: |||||
 [GA]2 [Fd]2- [Fd][Fd] [Ed]2 | [Ec]2 [Ec]2 [DB]2 [^DA]2 | [EG]2 [DF]2- [DF]D [CF]2 | %15
w: |||
 [CE]2 [A,D]6- | [A,D]2 z2 z4 |] %17
w: ||
V:2
 A,2 A,2 A,2 A,2 | A,2 B,6 | G,2 B,2 B,2 B,2 | B,2 E,6 | A,2 A,2 A,2 A,2 | E,2 F,2 =C2 B,2 | %6
 G,2 F,2- F,A, A,2 | G,2 F,6 | F,2 B,2- B,B, B,2 | G,2 A,6 | A,2[K:treble] D2- DD D2 | B,2 C6 | %12
 C2 D2[K:bass] z D, ^A,2 | ^A,2 A,2 B,2 B,2 | B,2 A,2- A,F, A,2 | G,2 F,6- | F,2 z2 z4 |] %17
V:3
 D,2 D,2 D,2 D,2 | D,2 G,,6 | B,,2 G,,2 G,,2 ^G,,2 | ^G,,2 A,,6 | A,,2 D,2 D,2 C,2 | %5
 C,2 B,,2 A,,2 G,,2 | B,,2 A,,2- A,,A,, A,,2 | A,,2 D,6 | D,2 G,,2- G,,G,, G,,2 | B,,2 D,6 | %10
 D,2 B,,2- B,,B,, B,,2 | D,2 F,6 | E,2 .D,4 F,2 | F,,2 G,,2 G,,2 B,,2 | E,2 A,,2- A,,A,, A,,2 | %15
 A,,2 D,6- | D,2 z2 z4 |] %17
V:4
 x8 | x8 | x8 | x8 | x8 | x8 | x8 | x8 | x8 | x8 | x2[K:treble] x6 | x8 | z4[K:bass] A,2 z2 | x8 | %14
 x8 | x8 | x8 |] %17

